X:131
T:(untitled hymn)
T:John Malchair's Third Collection of Tunes
%%VWML:Malchair-3619-p131
F:https://www.vwml.org/record/Malchair/3619/p131
F:www.vwml.org/topics/historic-dance-and-tune-books/Malchair
Z:Eric Conrad Feb 2020
% Two-voice scoring is incompatible with four-voice scoring of the previous entry.
% The large handwriting suggests that this was the work of a beginning student.
% Notes only, no clefs, time signatures or key signatures.  Probably in G.
% Some of the half notes in the bass line are unstemmed.  These are matched with treble notes above.
M:none   % Barring suggests 3/2
L:1/2
V:T clef=G stem=up                      % top staff, stems up
V:B clef=F octave=-2 stem=down          % bottom staff, stems down
%%score {T B}
K:G     % ending on G, so probably G major. Unnmarked in MS
V:T
G2[GB] | [AD]2[GB] | G2[DGB] | [DFA]3 || [Gd]2[GB] | [Gd]2[GB] | [CFA][B,GB][CFA] | G3 |]
V:B
g2[gd'] | d'2g | [ec']2B | d3 || [gb]2g | [gb]2g | d2d | G3 |]


